build/logo/WecloudOutline.svg

<svg xmlns="http://www.w3.org/2000/svg" fill="none" viewBox="0 0 24 24" focusable="false"><path d="M0 0H24V24H0z"/><path fill="#74767B" fill-rule="evenodd" d="M10.8108 10.0612C11.1626 9.97961 11.5289 9.93648 11.9058 9.93648C13.2311 9.93648 14.4321 10.4698 15.3054 11.3335C15.9358 10.6745 16.3223 9.78108 16.3223 8.79728C16.3223 6.77004 14.6798 5.12667 12.6518 5.12667C10.8156 5.12667 9.29362 6.47503 9.02373 8.23566C9.78134 8.65785 10.404 9.29344 10.8108 10.0612ZM15.9358 12.1002C16.4437 12.865 16.7387 13.7826 16.7387 14.7693C16.7387 15.2816 16.6597 15.7752 16.5122 16.2386C16.7204 16.2775 16.9363 16.2978 17.1561 16.2978C19.0867 16.2978 20.6521 14.7325 20.6521 12.8016C20.6521 10.9129 19.1542 9.37399 17.2823 9.30763C17.1638 10.3947 16.6712 11.3693 15.9358 12.1002ZM16.1064 17.1613C16.4437 17.2421 16.7946 17.2849 17.1561 17.2849C19.6323 17.2849 21.6391 15.2777 21.6391 12.8016C21.6391 10.3689 19.7017 8.38877 17.2852 8.32018C17.0471 5.97197 15.0625 4.13965 12.6518 4.13965C10.405 4.13965 8.52925 5.73043 8.09068 7.8471C7.69549 7.73281 7.27716 7.67158 6.84437 7.67158C4.36814 7.67158 2.36133 9.67882 2.36133 12.1549C2.36133 14.6309 4.36814 16.6381 6.84437 16.6381C7.0439 16.6381 7.23957 16.6251 7.43235 16.6C8.15334 18.3613 9.88544 19.6021 11.9058 19.6021C13.7053 19.6021 15.2745 18.6193 16.1064 17.1613ZM7.15089 15.6378C7.04968 15.6466 6.94751 15.6511 6.84437 15.6511C4.91371 15.6511 3.34835 14.0858 3.34835 12.1549C3.34835 10.224 4.91371 8.6586 6.84437 8.6586C8.13117 8.6586 9.25506 9.3535 9.86327 10.3884C8.21502 11.1583 7.07282 12.8304 7.07282 14.7693C7.07282 15.0658 7.09981 15.3561 7.15089 15.6378ZM11.9058 10.9235C9.78231 10.9235 8.05984 12.6453 8.05984 14.7693C8.05984 16.8933 9.78231 18.6151 11.9058 18.6151C14.0302 18.6151 15.7517 16.8933 15.7517 14.7693C15.7517 12.6453 14.0302 10.9235 11.9058 10.9235Z"/></svg>

<svg xmlns="http://www.w3.org/2000/svg" fill="none" viewBox="0 0 24 24" focusable="false"><path fill="#74767B" fill-rule="evenodd" d="M10.81 10.06c.35-.09.71-.13 1.09-.13 1.33 0 2.53.53 3.4 1.4a3.66 3.66 0 0 0 1.02-2.54c0-2.02-1.65-3.67-3.67-3.67-1.84 0-3.36 1.35-3.63 3.11.76.42 1.38 1.06 1.79 1.83m5.12 2.04c.51.76.8 1.68.8 2.66 0 .52-.08 1.01-.22 1.47a3.495 3.495 0 0 0 4.14-3.43c0-1.89-1.5-3.43-3.37-3.5a4.67 4.67 0 0 1-1.35 2.8m.17 5.06q.51.12 1.05.12c2.48 0 4.48-2.01 4.48-4.48 0-2.44-1.93-4.42-4.35-4.48-.24-2.35-2.22-4.19-4.63-4.19-2.25 0-4.13 1.6-4.56 3.71-.4-.11-.82-.17-1.25-.17-2.48 0-4.48 2-4.48 4.48s2 4.48 4.48 4.48c.2 0 .39-.01.59-.03.72 1.76 2.45 3 4.47 3 1.8 0 3.37-.99 4.2-2.44m-8.95-1.53c-.11.01-.21.02-.31.02-1.93 0-3.5-1.57-3.5-3.5s1.57-3.5 3.5-3.5c1.29 0 2.41.7 3.02 1.73a4.84 4.84 0 0 0-2.71 5.25m4.75-4.71c-2.12 0-3.84 1.72-3.84 3.84a3.845 3.845 0 1 0 3.84-3.84"/></svg>
